X:121
T:Pipe on the Hob
R:jig
Z:Transcribed by Dave Marshall
M:6/8
K:Ador
|: c3 edc|edc BAG|A3 ~g3|eaa ged|
c3 edc|edc deg|age dBe|1 ABA A2B:|2 ABA A3
|:~g3 gea|age dBe|~A3 ~g3|eaa gef|
~g3 gea|age deg|age dBe|1 ABA A2f:|2 ABA A2B
|:c3 dcd|ecA AGA|c3 dcd|ecA A2B|
c3 dcd|ede gab|age dBe|ABA A2B:|
